Sources/FrostedUI/Resources/Icons.xcassets/calendar12.imageset/calendar-12.svg

<svg width="12" height="12" viewBox="0 0 12 12" fill="none" xmlns="http://www.w3.org/2000/svg" data-fui-icon="true">
  <path
    d="M8.25 0C8.66421 0 9 0.335786 9 0.75V2H9.5C10.6046 2 11.5 2.89543 11.5 4V10C11.5 11.1046 10.6046 12 9.5 12H2.5C1.39543 12 0.5 11.1046 0.5 10V4C0.5 2.89543 1.39543 2 2.5 2H3V0.75C3 0.335786 3.33579 0 3.75 0C4.16421 0 4.5 0.335786 4.5 0.75V2H7.5V0.75C7.5 0.335786 7.83579 0 8.25 0ZM2 10C2 10.2761 2.22386 10.5 2.5 10.5H9.5C9.77614 10.5 10 10.2761 10 10V6.5H2V10ZM2.5 3.5C2.22386 3.5 2 3.72386 2 4V5H10V4C10 3.72386 9.77614 3.5 9.5 3.5H2.5Z"
    fill="currentColor"
  />
</svg>

<svg xmlns="http://www.w3.org/2000/svg" width="12" height="12" fill="none" data-fui-icon="true" viewBox="0 0 12 12"><path fill="currentColor" d="M8.25 0A.75.75 0 0 1 9 .75V2h.5a2 2 0 0 1 2 2v6a2 2 0 0 1-2 2h-7a2 2 0 0 1-2-2V4a2 2 0 0 1 2-2H3V.75a.75.75 0 0 1 1.5 0V2h3V.75A.75.75 0 0 1 8.25 0M2 10a.5.5 0 0 0 .5.5h7a.5.5 0 0 0 .5-.5V6.5H2zm.5-6.5A.5.5 0 0 0 2 4v1h8V4a.5.5 0 0 0-.5-.5z"/></svg>
